X:225
T: Geese in the Bog
T: G\'eabha sa bPortach (Na)
S: B.Breathnach: "Ceol Rince na hEireann" II/53
Z: B.Black
L: 1/8
M: 6/8
R: jig
K: D
A|dAF E2F|DED D2B|AFF EAF|DFA B2A|
dAF E2F|DED D2f|gfe fdB|AFA B2 :|
A|dc/d/d fdB|AFD DFA|d2d fdB|AFA B2A|
dc/d/d fdB|ABA A2f|gfe fdB|AFA B2 :|

